assets/Face with raised eyebrow/Flat/face_with_raised_eyebrow_flat.svg

<svg width="32" height="32" viewBox="0 0 32 32" fill="none" xmlns="http://www.w3.org/2000/svg">
<path d="M15.9989 29.9978C25.3333 29.9978 29.9978 23.7303 29.9978 15.9989C29.9978 8.26751 25.3333 2 15.9989 2C6.66443 2 2 8.26751 2 15.9989C2 23.7303 6.66443 29.9978 15.9989 29.9978Z" fill="#FFB02E"/>
<path d="M10.5 18C12.9853 18 15 15.9853 15 13.5C15 11.0147 12.9853 9 10.5 9C8.01472 9 6 11.0147 6 13.5C6 15.9853 8.01472 18 10.5 18Z" fill="white"/>
<path d="M21.5 18C23.9853 18 26 15.9853 26 13.5C26 11.0147 23.9853 9 21.5 9C19.0147 9 17 11.0147 17 13.5C17 15.9853 19.0147 18 21.5 18Z" fill="white"/>
<path d="M19.9226 7.76726C20.0248 7.60572 20.1734 7.41965 20.4075 7.272C20.6381 7.12652 20.9806 7 21.5001 7C22.0135 7 22.351 7.13113 22.5819 7.28052C22.8188 7.43377 22.9722 7.62435 23.0957 7.79412C23.2582 8.01743 23.5709 8.06678 23.7942 7.90434C24.0175 7.7419 24.0668 7.42919 23.9044 7.20588C23.7577 7.00425 23.5176 6.69483 23.1252 6.44093C22.7268 6.18317 22.1994 6 21.5001 6C20.8068 6 20.2765 6.17229 19.874 6.42621C19.4748 6.67797 19.2298 6.9919 19.0775 7.23274C18.9299 7.46613 18.9994 7.77498 19.2328 7.92258C19.4662 8.07018 19.775 8.00064 19.9226 7.76726Z" fill="#402A32"/>
<path d="M14 14C14 15.6569 12.6569 17 11 17C9.34315 17 8 15.6569 8 14C8 12.3431 9.34315 11 11 11C12.6569 11 14 12.3431 14 14Z" fill="#402A32"/>
<path d="M24 14C24 15.6569 22.6569 17 21 17C19.3431 17 18 15.6569 18 14C18 12.3431 19.3431 11 21 11C22.6569 11 24 12.3431 24 14Z" fill="#402A32"/>
<path d="M9.40747 8.72806C9.1734 8.58041 9.02481 8.39434 8.92264 8.2328C8.77504 7.99942 8.46619 7.92988 8.23281 8.07748C7.99942 8.22508 7.92988 8.53393 8.07748 8.76732C8.2298 9.00816 8.47483 9.32209 8.87396 9.57385C9.2765 9.82777 9.80675 10.0001 10.5001 10.0001C11.1994 10.0001 11.7268 9.8169 12.1252 9.55913C12.5176 9.30523 12.7577 8.99581 12.9044 8.79418C13.0668 8.57087 13.0175 8.25816 12.7942 8.09572C12.5709 7.93328 12.2582 7.98263 12.0957 8.20594C11.9722 8.37571 11.8188 8.56629 11.5819 8.71954C11.351 8.86893 11.0135 9.00006 10.5001 9.00006C9.98062 9.00006 9.63811 8.87354 9.40747 8.72806Z" fill="#402A32"/>
<path d="M13 20C12.4477 20 12 20.4477 12 21C12 21.5523 12.4477 22 13 22H19C19.5523 22 20 21.5523 20 21C20 20.4477 19.5523 20 19 20H13Z" fill="#402A32"/>
</svg>

<svg xmlns="http://www.w3.org/2000/svg" width="32" height="32" fill="none"><path fill="#FFB02E" d="M15.999 29.998c9.334 0 13.999-6.268 13.999-14 0-7.73-4.665-13.998-14-13.998C6.665 2 2 8.268 2 15.999c0 7.731 4.664 13.999 13.999 13.999Z"/><path fill="#fff" d="M10.5 18a4.5 4.5 0 1 0 0-9 4.5 4.5 0 0 0 0 9ZM21.5 18a4.5 4.5 0 1 0 0-9 4.5 4.5 0 0 0 0 9Z"/><path fill="#402A32" d="M19.923 7.767c.102-.161.25-.347.485-.495.23-.145.573-.272 1.092-.272.514 0 .851.131 1.082.28.237.154.39.344.514.514a.5.5 0 0 0 .808-.588 2.912 2.912 0 0 0-.779-.765C22.727 6.183 22.2 6 21.5 6c-.693 0-1.224.172-1.626.426-.4.252-.644.566-.796.807a.5.5 0 1 0 .845.534ZM14 14a3 3 0 1 1-6 0 3 3 0 0 1 6 0ZM24 14a3 3 0 1 1-6 0 3 3 0 0 1 6 0ZM9.407 8.728a1.548 1.548 0 0 1-.484-.495.5.5 0 0 0-.846.534c.153.241.398.555.797.807.402.254.933.426 1.626.426.7 0 1.227-.183 1.625-.44.393-.255.633-.564.78-.766a.5.5 0 0 0-.81-.588c-.123.17-.276.36-.513.514-.231.149-.569.28-1.082.28-.52 0-.862-.126-1.093-.272ZM13 20a1 1 0 1 0 0 2h6a1 1 0 1 0 0-2h-6Z"/></svg>
